src/pos-icons/linux-mint.svg

<svg height="24" viewBox="0 0 24 24" width="24" xmlns="http://www.w3.org/2000/svg"><path d="m2 3.23v3.57h1.5c1.09 0 1.28.73 1.28 1.75v6.31c0 3.26 2.87 5.91 6.4 5.91h8.72c1.1 0 2.1-.7 2.1-1.77v-9.8c0-3.27-2.87-5.92-6.4-5.92h-3.67v-.01zm4.62 2.23h1.75v8.99c0 1.2.82 2.14 1.79 2.14l5.97.02c1.25 0 2.22-.86 2.22-1.88l-.01-4.77c0-.31-.1-.55-.34-.77-.21-.23-.44-.33-.75-.33s-.54.1-.75.33c-.23.22-.34.46-.34.77v4.09h-1.85v-4.09c0-.31-.1-.55-.31-.77-.23-.23-.46-.33-.78-.33-.3 0-.54.1-.76.33-.22.22-.32.46-.32.77v4.09h-1.85v-4.09c0-.81.29-1.52.86-2.1.57-.57 1.28-.86 2.07-.86.78 0 1.46.28 2.02.82.55-.54 1.23-.82 2.01-.82.8 0 1.51.29 2.07.86.57.58.87 1.29.87 2.1l.01 5.1c-.09.85-.45 1.61-1.07 2.25-.73.73-1.63 1.11-2.63 1.11h-6.67c-.83-.08-1.54-.47-2.14-1.06-.69-.71-1.07-1.57-1.07-2.57z"/></svg>

<?xml version="1.0" encoding="UTF-8"?><!DOCTYPE svg PUBLIC "-//W3C//DTD SVG 1.1//EN" "http://www.w3.org/Graphics/SVG/1.1/DTD/svg11.dtd"><svg xmlns="http://www.w3.org/2000/svg" xmlns:xlink="http://www.w3.org/1999/xlink" version="1.1" id="mdi-linux-mint" width="24" height="24" viewBox="0 0 24 24"><path d="M2,3.23V6.8H3.5C4.59,6.8 4.78,7.53 4.78,8.55V14.86C4.78,18.12 7.65,20.77 11.18,20.77H19.9C21,20.77 22,20.07 22,19V9.2C22,5.93 19.13,3.28 15.6,3.28H11.93V3.27L2,3.23V3.23M6.62,5.46H8.37V14.45C8.37,15.65 9.19,16.59 10.16,16.59L16.13,16.61C17.38,16.61 18.35,15.75 18.35,14.73L18.34,9.96C18.34,9.65 18.24,9.41 18,9.19C17.79,8.96 17.56,8.86 17.25,8.86C16.94,8.86 16.71,8.96 16.5,9.19C16.27,9.41 16.16,9.65 16.16,9.96V14.05H14.31V9.96C14.31,9.65 14.21,9.41 14,9.19C13.77,8.96 13.54,8.86 13.22,8.86C12.92,8.86 12.68,8.96 12.46,9.19C12.24,9.41 12.14,9.65 12.14,9.96V14.05H10.29V9.96C10.29,9.15 10.58,8.44 11.15,7.86C11.72,7.29 12.43,7 13.22,7C14,7 14.68,7.28 15.24,7.82C15.79,7.28 16.47,7 17.25,7C18.05,7 18.76,7.29 19.32,7.86C19.89,8.44 20.19,9.15 20.19,9.96L20.2,15.06C20.11,15.91 19.75,16.67 19.13,17.31V17.31C18.4,18.04 17.5,18.42 16.5,18.42H9.83C9,18.34 8.29,17.95 7.69,17.36C7,16.65 6.62,15.79 6.62,14.79V5.46H6.62Z" /></svg>
